X: 5
T: The Fair Wind
R: reel
M: 4/4
L: 1/8
K: Dmaj
|: B | d3d/d/ d3e | fede feef | d3d/d/ d3e | fedB BAA :|
|: e | faaf d3e | faaf ge~e2 | faaf d3e | fedB BAA :|
|: B | dB~B2 g3e | faaf egfe | dB~B2 g3e | fedB BAA :|


Tune 936	Setting 21841

